X: 20
T:Mersey
% Nottingham Music Database
S:David Bradley (Feb 89), via PR
M:4/4
L:1/4
K:Em
"Em"E/2E/2E ^D/2D/2D|D/2D/2D ^C/2C/2C|"B7"B3/2^c/2 ^dB|"Em"eB GF|
"Em"E/2E/2E ^D/2D/2D|D/2D/2D ^C/2C/2C|"B7"B3/2A/2 FG|"Em"E4:|
"D7"D3/2E/2 FD|"G"GA B2|"B7"^D3/2E/2 FD|"Em"EF G2|"Am"cc3|"Em"BB3|"F#7"^A2 d^c\
|"Bm"^cB cB|
"Am"cA "D"c3/2A/2|"G"BG D2|"B7"^DF B3/2A/2|"Em"AG G2|"Am"c2 -cB/2c/2|"Em"B4|\
"B7"B3/2A/2 FG|"Em"E4||<end>
<start>
